src/asset/logotype_24.svg

<svg width="144" height="24" viewBox="0 0 144 24" fill="none" xmlns="http://www.w3.org/2000/svg">
<path d="M8.53661 6.7884C8.53661 7.68 8.22221 8.3604 7.59401 8.8284C6.96521 9.297 6.04541 9.531 4.83401 9.531H2.47301C2.12561 9.531 1.86461 9.213 1.93301 8.8722L2.63861 5.346C2.69021 5.0886 2.91641 4.9032 3.17861 4.9032H5.69081C7.58801 4.9032 8.53661 5.532 8.53661 6.7884ZM7.06241 14.7258C6.55961 14.3946 5.87381 14.2284 5.00501 14.2284H1.29401C1.03061 14.2284 0.804414 14.4144 0.753414 14.6724L0.0106139 18.4392C-0.0565861 18.7794 0.203814 19.0968 0.551214 19.0968H3.94241C5.15381 19.0968 6.10241 18.8568 6.78821 18.3768C7.47401 17.8968 7.81661 17.1888 7.81661 16.251C7.81661 15.5658 7.56461 15.057 7.06241 14.7258ZM25.1158 16.2516C25.1158 15.5658 24.8644 15.0576 24.3616 14.7258C23.8588 14.3946 23.173 14.2284 22.3042 14.2284H18.1402L17.1802 19.0968H21.241C22.4524 19.0968 23.401 18.8568 24.0868 18.3768C24.7726 17.8968 25.1158 17.1888 25.1158 16.2516ZM25.8364 6.7884C25.8364 5.5314 24.8878 4.9026 22.9906 4.9026H20.0266L19.1008 9.531H22.1332C23.3446 9.531 24.2644 9.297 24.8932 8.8284C25.5214 8.3604 25.8364 7.68 25.8364 6.7884ZM31.0306 13.5258C31.5904 14.3376 31.8706 15.2916 31.8706 16.3884C31.8706 18.8802 30.8536 20.7714 28.819 22.0626C26.7844 23.3544 24.133 24 20.8648 24H7.68341C7.55621 24 7.46021 23.8836 7.48481 23.7588C7.50041 23.6796 7.56101 23.6166 7.63961 23.5998C9.11621 23.2794 10.4092 22.7676 11.5192 22.0632C13.5532 20.772 14.5708 18.8808 14.5708 16.389C14.5708 15.2916 14.2906 14.3376 13.7308 13.5264C13.2946 12.8958 12.718 12.3714 11.9986 11.955C11.7472 11.8092 11.755 11.4456 12.013 11.3118C13.0468 10.7748 13.8766 10.0848 14.5024 9.2412C15.2566 8.2242 15.634 7.0188 15.634 5.6238C15.634 3.8184 14.9194 2.43 13.4914 1.458C13.1314 1.2132 12.7306 0.999 12.2902 0.816C12.1042 0.7386 11.9986 0.5412 12.037 0.3438C12.0748 0.144 12.2494 0 12.4522 0H24.6016C27.2986 0 29.3614 0.486 30.79 1.4574C32.218 2.4294 32.9326 3.8178 32.9326 5.6232C32.9326 7.0176 32.5552 8.2236 31.801 9.2406C31.0468 10.2576 29.995 11.0526 28.6468 11.6238C29.6758 12.0804 30.4702 12.7146 31.0306 13.5258Z" fill="#FF9E65"/>
<path d="M53.6658 13.401C53.9682 13.8396 54.1194 14.3736 54.1194 15.0036C54.1194 16.35 53.5884 17.3688 52.5264 18.06C51.4638 18.7518 50.0502 19.0974 48.2844 19.0974H41.4864L44.0796 6.13019H50.3412C51.7368 6.13019 52.8108 6.38639 53.5644 6.89879C54.3174 7.41119 54.6948 8.14319 54.6948 9.09419C54.6948 9.88439 54.4878 10.5606 54.0744 11.1228C53.6604 11.685 53.0952 12.114 52.3794 12.4104C52.9344 12.6318 53.3628 12.9624 53.6658 13.401ZM50.4336 16.3554C50.9028 16.0344 51.1374 15.5712 51.1374 14.9658C51.1374 14.0766 50.4894 13.632 49.1922 13.632H45.5616L44.9322 16.8366H48.4704C49.3098 16.8372 49.9638 16.677 50.4336 16.3554ZM46.5984 8.38979L45.9876 11.4462H49.044C49.8342 11.4462 50.4492 11.289 50.8872 10.974C51.3252 10.659 51.5448 10.2054 51.5448 9.61259C51.5448 8.79779 50.9088 8.38979 49.6368 8.38979H46.5984Z" fill="#FF9E65"/>
<path d="M57.4548 9.1308H60.3264L58.344 19.0974H55.4724L57.4548 9.1308ZM58.1676 7.3062C57.8526 7.0164 57.6954 6.6612 57.6954 6.2412C57.6954 5.7474 57.8712 5.3364 58.2228 5.0094C58.575 4.6824 59.0346 4.5186 59.6034 4.5186C60.1092 4.5186 60.5202 4.6578 60.8352 4.9356C61.1502 5.2134 61.3074 5.556 61.3074 5.9634C61.3074 6.4944 61.1286 6.924 60.7704 7.251C60.4122 7.5786 59.949 7.7418 59.3808 7.7418C58.8864 7.7418 58.4826 7.5966 58.1676 7.3062Z" fill="#FF9E65"/>
<path d="M64.9565 15.5778C64.9313 15.6768 64.9193 15.8124 64.9193 15.9852C64.9193 16.6272 65.2715 16.9482 65.9753 16.9482C66.3581 16.9482 66.7469 16.8312 67.1429 16.596L67.5689 18.6522C66.9269 19.0476 66.0989 19.245 65.0867 19.245C64.1483 19.245 63.3947 18.9984 62.8265 18.504C62.2589 18.0102 61.9745 17.331 61.9745 16.4664C61.9745 16.2198 62.0051 15.9294 62.0669 15.5958L62.8631 11.5758H61.3253L61.7699 9.35281H63.3077L63.7889 6.92581H66.6791L66.1979 9.35281H68.6801L68.2361 11.5758H65.7539L64.9565 15.5778Z" fill="#FF9E65"/>
<path d="M71.3478 18.6894C70.5822 18.3192 69.9924 17.7972 69.579 17.124C69.165 16.4508 68.9586 15.6696 68.9586 14.7804C68.9586 13.6812 69.2178 12.6936 69.7362 11.8164C70.2546 10.9398 70.9776 10.248 71.9034 9.7416C72.8298 9.2352 73.8732 8.982 75.0342 8.982C76.0968 8.982 77.013 9.2016 77.7852 9.6396C78.5568 10.0782 79.134 10.6986 79.5168 11.5014L77.0718 12.7242C76.6398 11.823 75.8982 11.3718 74.8494 11.3718C74.2812 11.3718 73.7718 11.511 73.3206 11.7888C72.87 12.0666 72.5178 12.453 72.2646 12.9468C72.0114 13.4406 71.8848 14.0028 71.8848 14.6328C71.8848 15.312 72.0888 15.8526 72.4962 16.254C72.9036 16.6554 73.4718 16.8558 74.2002 16.8558C75.2628 16.8558 76.0776 16.4112 76.6452 15.522L78.7758 16.8558C78.294 17.6094 77.6364 18.1962 76.803 18.6156C75.9696 19.0356 75.0456 19.2456 74.0334 19.2456C73.0086 19.2456 72.1134 19.0602 71.3478 18.6894Z" fill="#FF9E65"/>
<path d="M82.1567 18.6894C81.3971 18.3192 80.8103 17.7972 80.3969 17.124C79.9835 16.4508 79.7765 15.6696 79.7765 14.7804C79.7765 13.6812 80.0357 12.6936 80.5547 11.8164C81.0731 10.9398 81.7895 10.248 82.7033 9.7416C83.6171 9.2352 84.6485 8.982 85.7969 8.982C86.8097 8.982 87.6923 9.1674 88.4459 9.5376C89.1989 9.9084 89.7827 10.4298 90.1961 11.103C90.6095 11.7762 90.8165 12.5574 90.8165 13.4466C90.8165 14.5458 90.5603 15.534 90.0479 16.4106C89.5355 17.2878 88.8191 17.979 87.8993 18.4854C86.9789 18.9918 85.9451 19.245 84.7961 19.245C83.7965 19.2456 82.9163 19.0602 82.1567 18.6894ZM86.4821 16.4388C86.9267 16.161 87.2723 15.7752 87.5195 15.2808C87.7667 14.787 87.8903 14.2188 87.8903 13.5768C87.8903 12.8976 87.6923 12.3606 87.2975 11.9652C86.9021 11.5698 86.3465 11.3724 85.6301 11.3724C85.0625 11.3724 84.5555 11.5116 84.1109 11.7894C83.6669 12.0672 83.3207 12.4536 83.0735 12.9474C82.8263 13.4412 82.7033 14.01 82.7033 14.6514C82.7033 15.3306 82.9037 15.8682 83.3051 16.263C83.7059 16.6584 84.2651 16.8558 84.9815 16.8558C85.5377 16.8558 86.0375 16.7166 86.4821 16.4388Z" fill="#FF9E65"/>
<path d="M93.6881 9.1308H96.5598L94.5774 19.0974H91.7057L93.6881 9.1308ZM94.4016 7.3062C94.0866 7.0164 93.9293 6.6612 93.9293 6.2412C93.9293 5.7474 94.1051 5.3364 94.4567 5.0094C94.8089 4.6824 95.2685 4.5186 95.8373 4.5186C96.3431 4.5186 96.7542 4.6578 97.0692 4.9356C97.3842 5.2134 97.5413 5.556 97.5413 5.9634C97.5413 6.4944 97.3626 6.924 97.0044 7.251C96.6462 7.5786 96.1829 7.7418 95.6147 7.7418C95.1203 7.7418 94.7166 7.5966 94.4016 7.3062Z" fill="#FF9E65"/>
<path d="M107.693 9.86282C108.347 10.4496 108.674 11.2866 108.674 12.3732C108.674 12.7806 108.631 13.182 108.545 13.5774L107.434 19.098H104.543L105.618 13.7628C105.667 13.5528 105.692 13.3248 105.692 13.0776C105.692 12.5586 105.55 12.1638 105.266 11.892C104.982 11.6208 104.556 11.4846 103.988 11.4846C103.247 11.4846 102.632 11.6976 102.145 12.1236C101.657 12.5496 101.326 13.1886 101.153 14.0406L100.153 19.098H97.2624L99.2448 9.13142H101.986L101.764 10.206C102.653 9.39122 103.747 8.98322 105.043 8.98322C106.155 8.98262 107.038 9.27602 107.693 9.86282Z" fill="#FF9E65"/>
<path d="M122.429 13.401C122.731 13.8396 122.883 14.3736 122.883 15.0036C122.883 16.35 122.352 17.3688 121.289 18.06C120.227 18.7518 118.814 19.0974 117.047 19.0974H110.249L112.842 6.13019H119.104C120.499 6.13019 121.573 6.38639 122.327 6.89879C123.08 7.41119 123.457 8.14319 123.457 9.09419C123.457 9.88439 123.25 10.5606 122.837 11.1228C122.423 11.685 121.858 12.114 121.142 12.4104C121.697 12.6318 122.126 12.9624 122.429 13.401ZM119.197 16.3554C119.665 16.0344 119.9 15.5712 119.9 14.9658C119.9 14.0766 119.252 13.632 117.956 13.632H114.325L113.695 16.8366H117.233C118.072 16.8372 118.727 16.677 119.197 16.3554ZM115.362 8.38979L114.751 11.4462H117.808C118.598 11.4462 119.212 11.289 119.651 10.974C120.089 10.659 120.308 10.2054 120.308 9.61259C120.308 8.79779 119.672 8.38979 118.4 8.38979H115.362Z" fill="#FF9E65"/>
<path d="M126.8 18.6894C126.041 18.3192 125.454 17.7972 125.041 17.124C124.627 16.4508 124.42 15.6696 124.42 14.7804C124.42 13.6812 124.679 12.6936 125.198 11.8164C125.717 10.9398 126.433 10.248 127.347 9.7416C128.261 9.2352 129.292 8.982 130.441 8.982C131.453 8.982 132.336 9.1674 133.09 9.5376C133.843 9.9084 134.426 10.4298 134.84 11.103C135.253 11.7762 135.46 12.5574 135.46 13.4466C135.46 14.5458 135.204 15.534 134.692 16.4106C134.179 17.2878 133.463 17.979 132.543 18.4854C131.623 18.9918 130.589 19.245 129.44 19.245C128.44 19.2456 127.561 19.0602 126.8 18.6894ZM131.126 16.4388C131.571 16.161 131.917 15.7752 132.164 15.2808C132.411 14.787 132.535 14.2188 132.535 13.5768C132.535 12.8976 132.337 12.3606 131.942 11.9652C131.546 11.5698 130.991 11.3724 130.274 11.3724C129.707 11.3724 129.2 11.5116 128.755 11.7894C128.311 12.0672 127.965 12.4536 127.718 12.9474C127.471 13.4412 127.348 14.01 127.348 14.6514C127.348 15.3306 127.548 15.8682 127.949 16.263C128.35 16.6584 128.909 16.8558 129.626 16.8558C130.181 16.8558 130.681 16.7166 131.126 16.4388Z" fill="#FF9E65"/>
<path d="M140.278 15.5778C140.252 15.6768 140.24 15.8124 140.24 15.9852C140.24 16.6272 140.593 16.9482 141.296 16.9482C141.679 16.9482 142.068 16.8312 142.464 16.596L142.89 18.6522C142.248 19.0476 141.42 19.245 140.408 19.245C139.469 19.245 138.716 18.9984 138.148 18.504C137.58 18.0102 137.296 17.331 137.296 16.4664C137.296 16.2198 137.326 15.9294 137.388 15.5958L138.184 11.5758H136.646L137.091 9.35281H138.629L139.11 6.92581H142L141.519 9.35281H144.001L143.557 11.5758H141.074L140.278 15.5778Z" fill="#FF9E65"/>
</svg>

<svg width="144" height="24" fill="none" xmlns="http://www.w3.org/2000/svg"><path d="M8.537 6.788c0 .892-.315 1.572-.943 2.04-.629.469-1.549.703-2.76.703H2.473a.55.55 0 01-.54-.659l.706-3.526a.551.551 0 01.54-.443H5.69c1.897 0 2.846.629 2.846 1.885zm-1.475 7.938c-.502-.331-1.188-.498-2.057-.498H1.294a.55.55 0 00-.54.444L.01 18.44a.551.551 0 00.54.658h3.391c1.212 0 2.16-.24 2.846-.72.686-.48 1.029-1.188 1.029-2.126 0-.685-.252-1.194-.755-1.525zm18.054 1.526c0-.686-.252-1.194-.754-1.526-.503-.331-1.189-.498-2.058-.498H18.14l-.96 4.869h4.061c1.211 0 2.16-.24 2.846-.72.686-.48 1.029-1.188 1.029-2.125zm.72-9.464c0-1.257-.948-1.885-2.845-1.885h-2.964L19.1 9.53h3.032c1.212 0 2.131-.234 2.76-.703.628-.468.943-1.148.943-2.04zm5.195 6.738c.56.812.84 1.766.84 2.862 0 2.492-1.017 4.383-3.052 5.675C26.784 23.354 24.133 24 20.865 24H7.683a.202.202 0 01-.043-.4c1.476-.32 2.77-.832 3.88-1.537 2.033-1.291 3.05-3.182 3.05-5.674 0-1.097-.28-2.051-.84-2.863A5.289 5.289 0 0012 11.955a.366.366 0 01.014-.643c1.034-.537 1.864-1.227 2.49-2.07.754-1.018 1.131-2.223 1.131-3.618 0-1.806-.715-3.194-2.143-4.166a6.706 6.706 0 00-1.2-.642.424.424 0 01.161-.816h12.15c2.697 0 4.76.486 6.188 1.457 1.428.972 2.143 2.36 2.143 4.166 0 1.395-.378 2.6-1.132 3.618-.754 1.017-1.806 1.812-3.154 2.383 1.029.456 1.823 1.09 2.384 1.902zM53.666 13.401c.302.439.453.973.453 1.603 0 1.346-.53 2.365-1.593 3.056-1.062.692-2.476 1.037-4.242 1.037h-6.798L44.08 6.13h6.261c1.396 0 2.47.256 3.223.769.753.512 1.13 1.244 1.13 2.195 0 .79-.206 1.467-.62 2.029-.414.562-.979.991-1.695 1.287.555.222.984.552 1.287.991zm-3.232 2.954c.469-.32.703-.784.703-1.39 0-.888-.648-1.333-1.945-1.333h-3.63l-.63 3.205h3.538c.84 0 1.494-.16 1.964-.482zM46.598 8.39l-.61 3.056h3.056c.79 0 1.405-.157 1.843-.472.438-.315.658-.769.658-1.361 0-.815-.636-1.223-1.908-1.223h-3.039zM57.455 9.13h2.871l-1.982 9.967h-2.872l1.983-9.966zm.713-1.824a1.392 1.392 0 01-.473-1.065c0-.494.176-.905.528-1.232.352-.327.812-.49 1.38-.49.506 0 .917.139 1.232.417.315.277.472.62.472 1.027 0 .531-.178.961-.537 1.288-.358.328-.821.49-1.39.49-.494 0-.897-.144-1.212-.435zM64.957 15.578a1.73 1.73 0 00-.038.407c0 .642.353.963 1.056.963.383 0 .772-.117 1.168-.352l.426 2.056c-.642.396-1.47.593-2.482.593-.939 0-1.692-.247-2.26-.741-.568-.494-.852-1.173-.852-2.038 0-.246.03-.537.092-.87l.796-4.02h-1.538l.445-2.223h1.538l.48-2.427h2.891l-.481 2.427h2.482l-.444 2.223h-2.482l-.797 4.002zM71.348 18.69c-.766-.37-1.356-.893-1.769-1.566-.414-.673-.62-1.454-.62-2.344 0-1.099.259-2.086.777-2.964a5.566 5.566 0 012.167-2.074c.927-.507 1.97-.76 3.131-.76 1.063 0 1.979.22 2.751.658a4.145 4.145 0 011.732 1.861l-2.445 1.223c-.432-.901-1.174-1.352-2.223-1.352-.568 0-1.077.139-1.528.417-.451.278-.803.664-1.056 1.158-.254.494-.38 1.056-.38 1.686 0 .679.204 1.22.611 1.621.408.401.976.602 1.704.602 1.063 0 1.878-.445 2.445-1.334l2.13 1.334a4.909 4.909 0 01-1.972 1.76c-.833.42-1.757.63-2.77.63-1.024 0-1.92-.186-2.685-.557zM82.157 18.69c-.76-.37-1.347-.893-1.76-1.566-.413-.673-.62-1.454-.62-2.344 0-1.099.259-2.086.778-2.964a5.598 5.598 0 012.148-2.074c.914-.507 1.945-.76 3.094-.76 1.013 0 1.895.185 2.649.556.753.37 1.337.892 1.75 1.565.413.673.62 1.454.62 2.344 0 1.099-.256 2.087-.768 2.964a5.512 5.512 0 01-2.149 2.074c-.92.507-1.954.76-3.103.76-1 0-1.88-.185-2.64-.556zm4.325-2.251c.445-.278.79-.664 1.037-1.158.248-.494.371-1.062.371-1.704 0-.68-.198-1.216-.593-1.612-.395-.395-.95-.593-1.667-.593-.567 0-1.075.14-1.52.417-.443.278-.79.665-1.037 1.158-.247.494-.37 1.063-.37 1.704 0 .68.2 1.217.602 1.612.4.395.96.593 1.676.593.557 0 1.056-.14 1.501-.417zM93.688 9.13h2.872l-1.983 9.967h-2.871l1.982-9.966zm.714-1.824a1.392 1.392 0 01-.473-1.065c0-.494.176-.905.528-1.232.352-.327.812-.49 1.38-.49.506 0 .917.139 1.232.417.315.277.472.62.472 1.027 0 .531-.178.961-.537 1.288-.358.328-.821.49-1.39.49-.494 0-.897-.144-1.212-.435zM107.693 9.863c.654.587.981 1.424.981 2.51 0 .408-.043.809-.129 1.204l-1.111 5.521h-2.891l1.075-5.335a3.01 3.01 0 00.074-.685c0-.52-.142-.914-.426-1.186-.284-.271-.71-.407-1.278-.407-.741 0-1.356.213-1.843.639-.488.426-.819 1.065-.992 1.917l-1 5.057h-2.89l1.982-9.967h2.741l-.222 1.075c.889-.815 1.983-1.223 3.279-1.223 1.112 0 1.995.293 2.65.88zM122.429 13.401c.302.439.454.973.454 1.603 0 1.346-.531 2.365-1.594 3.056-1.062.692-2.475 1.037-4.242 1.037h-6.798l2.593-12.967h6.262c1.395 0 2.469.256 3.223.769.753.512 1.13 1.244 1.13 2.195 0 .79-.207 1.467-.62 2.029-.414.562-.979.991-1.695 1.287.555.222.984.552 1.287.991zm-3.232 2.954c.468-.32.703-.784.703-1.39 0-.888-.648-1.333-1.944-1.333h-3.631l-.63 3.205h3.538c.839 0 1.494-.16 1.964-.482zm-3.835-7.965l-.611 3.056h3.057c.79 0 1.404-.157 1.843-.472.438-.315.657-.769.657-1.361 0-.815-.636-1.223-1.908-1.223h-3.038zM126.8 18.69c-.759-.37-1.346-.893-1.759-1.566-.414-.673-.621-1.454-.621-2.344 0-1.099.259-2.086.778-2.964a5.602 5.602 0 012.149-2.074c.914-.507 1.945-.76 3.094-.76 1.012 0 1.895.185 2.649.556.753.37 1.336.892 1.75 1.565.413.673.62 1.454.62 2.344 0 1.099-.256 2.087-.768 2.964a5.516 5.516 0 01-2.149 2.074c-.92.507-1.954.76-3.103.76-1 0-1.879-.185-2.64-.556zm4.326-2.251a2.815 2.815 0 001.038-1.158c.247-.494.371-1.062.371-1.704 0-.68-.198-1.216-.593-1.612-.396-.395-.951-.593-1.668-.593a2.81 2.81 0 00-1.519.417c-.444.278-.79.665-1.037 1.158-.247.494-.37 1.063-.37 1.704 0 .68.2 1.217.601 1.612.401.395.96.593 1.677.593.555 0 1.055-.14 1.5-.417zM140.278 15.578a1.682 1.682 0 00-.038.407c0 .642.353.963 1.056.963.383 0 .772-.117 1.168-.352l.426 2.056c-.642.396-1.47.593-2.482.593-.939 0-1.692-.247-2.26-.741-.568-.494-.852-1.173-.852-2.038 0-.246.03-.537.092-.87l.796-4.02h-1.538l.445-2.223h1.538l.481-2.427H142l-.481 2.427h2.482l-.444 2.223h-2.483l-.796 4.002z" fill="#FF9E65"/></svg>
